X:1
T:Title
%%score 1 { ( 2 5 ) | ( 3 4 ) }
L:1/8
Q:1/4=92
M:4/4
K:D
V:1 treble nm="Akkordion"
V:2 treble nm="Grand Piano"
V:5 treble 
V:3 bass 
V:4 bass 
V:1
 F2 F2 A2 GE | D2 B2 A4 | B2 EE A2 FD | G2 F2 E4 | F2 FF A2 GE | D2 B2 A4 | E2 F^G ABcd | %7
w: Powell~G.~Fithian * * * *|||||||
[M:17/16] B/-B/-B-<BAA/-A/-A/-A/-A/-A-<A |[M:1/8] A |[M:4/4] A3 A A3 A | A2 A2 A2 ^A2 | %11
w: ||||
 B3 B B2 B2 | B2 B2 B2 c2 | d2 d2 c2 ^AF | B2 B2 A2 FE | DEFG ABcd | d2 c2 d4 |] %17
w: ||||||
V:2
 [A,DF]2 [A,DF]2 [A,CA]2 .[A,CG]2 | [F,B,D]2 [B,GB]2 [A,FA]4 | [B,DB]2 [A,CE]2 [A,DA]2 [A,DF]2 | %3
 [A,EG]2 [A,DF]2 [A,CE]4 | [A,DF]2 [A,DF]2 [A,CA]2 .[A,CG]2 | [F,B,D]2 [B,DGB]2 [A,DFA]4 | %6
 [E,A,E]2 F^G AB[Ec][Fd] | %7
[M:17/16] [DB]/-[DB]/-[DB]-<[DB][A,CA][A,CA]/-[A,CA]/-[A,CA]/-[A,CA]/-[A,CA]/-[A,CA]-<[A,CA] | %8
[M:1/8] z |[M:4/4] [A,DFA]2 DE [DF]2 DE | [DF][K:bass][A,E][F,D][K:treble][A,E] [DF]2 [^A,E^A]2 | %11
 [B,EGB]2 EF [EG]2 EF | [EG][B,F][G,E][B,F] [EG]2 [A,CG]2 | [A,DF]4 [^A,CF]4 | [B,DG]4 [A,DF]2 FE | %15
 z EFG AB[Gc][Fd] | [Ed]2 [EGc]2 [DFd]4 |] %17
V:3
 D,2 A,,2 E,2 z E | B,,2 [G,,G,]2 [D,,D,]2 [F,,F,]2 | [G,,G,]2 [G,,G,]2 [F,,F,]2 [D,,D,]2 | %3
 [C,,C,]2 [D,,D,]2 [A,,,A,,]4 | D,2 A,,2 E,2 z E | B,,2 [G,,G,]2 [D,,D,]2 D,2 | %6
 C,2 [B,,E,]2 [A,,E,]2 A,-[D,A,] |[M:17/16] E,/-E,/-E,-<E, z/ z/ z/ z/ z/ z/ z/ z/ z/ z | %8
[M:1/8] A |[M:4/4] [D,,D,]2 F,A, [D,,D,]2 F,A, | [D,,D,]2 [D,,D,]2 [D,,D,]2 [F,,F,]2 | %11
 [E,,E,]2 G,B, [E,,E,]2 G,B, | [E,,E,]2 [E,,E,]2 [E,,E,]4 | [D,,D,]4 [F,,E,]4 | %14
 [G,,D,]4 [D,,D,]2 [A,,G,]2 | .F,2 z2 .[F,A,]2 A,2 | [A,,A,]2 [A,,,A,,]2 [D,,D,]4 |] %17
V:4
 z4 z2 A,,2 | x8 | x8 | x8 | z4 z2 A,,2 | x8 | z4 z2 .A,,2 | %7
[M:17/16] A,-<A,^G,A,,A,,/-A,,/-A,,/-A,,/-A,,/-A,,-<A,, |[M:1/8] x |[M:4/4] x8 | x8 | x8 | x8 | %13
 x8 | x8 | B,,-[B,,G,]A,,G, D-[G,D]E,D, | x8 |] %17
V:5
 x8 | x8 | x8 | x8 | x8 | x8 | z2 D2 C2 z2 |[M:17/16] x17/2 |[M:1/8] x |[M:4/4] x8 | %10
 x[K:bass] x2[K:treble] x5 | x8 | x8 | x8 | z4 z2 C2 | D2 [A,D]2 z4 | x8 |] %17

